candor.svg

<svg width="134" height="38" viewBox="0 0 134 38" fill="none" xmlns="http://www.w3.org/2000/svg">
<path d="M65.3337 25.7173C64.5524 26.3057 63.4817 26.8941 62.1216 26.8941C59.5171 26.8941 57.202 24.5406 57.202 21.4515C57.202 18.3625 59.5171 16.0089 62.1216 16.0089C63.4817 16.0089 64.5524 16.5973 65.2469 17.1857C65.6521 17.5387 65.9993 17.9212 66.3177 18.3625L67.7646 16.8915C67.3305 16.3914 66.8386 15.9207 66.2887 15.5088C65.3338 14.8027 63.9447 14.0967 62.1216 14.0967C58.3306 14.0967 55.1763 17.3328 55.1763 21.4515C55.1763 25.5702 58.3306 28.8064 62.1216 28.8064C63.9447 28.8064 65.3627 28.0709 66.3755 27.3354C66.9543 26.8941 67.4752 26.4234 67.9093 25.8644L66.4624 24.5406C66.144 24.9818 65.7678 25.3643 65.3337 25.7173V25.7173Z" fill="white"/>
<path d="M74.7863 14.0967C73.1561 14.0967 71.968 14.7439 71.1115 15.4205C70.6141 15.803 70.172 16.2443 69.8128 16.7444L71.0562 18.0683C71.3601 17.6858 71.6917 17.3622 72.0509 17.0386C72.6864 16.5385 73.5982 16.0089 74.7863 16.0089C76.7481 16.0089 78.102 17.4505 78.102 19.5393L72.9903 20.4218C70.476 20.8631 69.1221 22.3341 69.1221 24.6877C69.1221 26.747 71.0562 28.8064 73.8193 28.8064C75.256 28.8064 76.306 28.2768 77.052 27.7178C77.4665 27.3942 77.8257 27.0118 78.102 26.5999V28.5122H80.0361V19.5393C80.0361 16.4502 77.8257 14.0967 74.7863 14.0967V14.0967ZM78.102 22.187C78.102 25.0113 76.3336 26.8941 73.8193 26.8941C72.0233 26.8941 71.0562 25.8644 71.0562 24.6877C71.0562 23.3638 71.8851 22.5106 73.5429 22.187L78.102 21.3044V22.187Z" fill="white"/>
<path d="M88.9579 14.0967C87.4276 14.0967 86.3593 14.6721 85.5797 15.2474C85.1466 15.5927 84.7713 15.9667 84.4825 16.3982V14.3844H82.4614V28.1935H84.4825V20.5697C84.4825 17.8079 86.3593 15.9667 88.8135 15.9667C91.0079 15.9667 92.567 17.549 92.567 19.9943V28.1935H94.5881V19.9943C94.5881 16.3982 92.2783 14.0967 88.9579 14.0967V14.0967Z" fill="white"/>
<path d="M107.153 16.4794C106.841 16.0391 106.444 15.6575 105.99 15.3053C105.195 14.7183 104.06 14.1313 102.47 14.1313C98.7808 14.1313 95.8008 17.2131 95.8008 21.4689C95.8008 25.7247 98.7808 28.8065 102.47 28.8065C104.06 28.8065 105.195 28.2195 105.99 27.6325C106.444 27.2803 106.841 26.8987 107.153 26.4585V28.513H109.14V7.96777H107.153V16.4794V16.4794ZM102.47 26.8987C99.8877 26.8987 97.7875 24.6681 97.7875 21.4689C97.7875 18.2697 99.8877 16.0391 102.47 16.0391C104.855 16.0391 107.153 18.3871 107.153 21.4689C107.153 24.5507 104.855 26.8987 102.47 26.8987Z" fill="white"/>
<path d="M117.932 14.0967C114.09 14.0967 110.959 17.3328 110.959 21.4515C110.959 25.5702 114.09 28.8064 117.932 28.8064C121.775 28.8064 124.905 25.5702 124.905 21.4515C124.905 17.3328 121.775 14.0967 117.932 14.0967ZM117.932 26.8941C115.229 26.8941 112.952 24.5111 112.952 21.4515C112.952 18.3919 115.229 16.0089 117.932 16.0089C120.636 16.0089 122.913 18.3625 122.913 21.4515C122.913 24.5406 120.636 26.8941 117.932 26.8941Z" fill="white"/>
<path d="M133.418 14.0967C131.788 14.0967 130.682 14.6433 129.896 15.1899C129.46 15.5064 129.082 15.8804 128.761 16.2543V14.3844H126.724V28.1935H128.761V20.5697C128.761 17.8366 130.799 16.1105 133.127 16.1105H134V14.0967H133.418V14.0967Z" fill="white"/>
<path d="M41.534 13.4834C41.0338 13.4834 40.6245 13.8971 40.6245 14.4028C40.6245 14.9084 41.0338 15.3221 41.534 15.3221C42.0342 15.3221 42.4435 14.9084 42.4435 14.4028C42.4435 13.8971 42.0342 13.4834 41.534 13.4834Z" fill="white"/>
<path d="M46.9804 12.8248C46.9804 8.59935 43.5662 5.15961 39.3723 5.15961C38.0789 5.15961 37.1897 4.00026 36.6999 3.3583C35.0641 1.22164 32.5867 0 29.9144 0C25.4351 0 21.8593 3.1523 21.3933 7.3298C10.195 7.65557 0.884553 16.9448 0.0666778 28.7491C-0.128281 31.5804 0.0999635 34.2728 0.808472 37.4826L0.922594 38H15.554L15.34 37.176C15.34 37.176 14.7456 34.8429 14.7456 31.9589C14.7456 31.1924 14.7789 30.4642 14.8407 29.7648C18.1122 30.0378 20.699 32.8021 20.699 36.1699C20.699 36.558 20.6848 36.9317 20.6705 37.3101L20.642 38H33.1669L33.6516 38C33.6516 38 33.7625 37.6935 33.8516 37.291C34.3033 35.2501 34.4412 33.147 34.2558 31.0391C33.9515 27.5083 33.048 24.6099 31.8307 22.3008C32.2729 21.9176 32.7674 21.5391 33.2857 21.151C33.8231 20.7438 34.3794 20.3222 34.912 19.8623C35.7441 20.5282 36.6476 21.1175 37.513 21.678C40.0047 23.2925 42.1635 24.6962 42.3394 27.3598C40.7084 27.1873 40.2947 26.3538 39.824 25.4052C39.396 24.5333 38.8587 23.4506 37.2658 23.4506C36.0057 23.4506 34.6695 24.5285 34.6695 26.5214C34.6695 29.7647 37.5843 32.6104 40.9081 32.6104C45.454 32.6104 48.5068 28.5 48.5068 22.387C48.5068 20.8828 48.1549 19.4264 47.7793 17.879C47.3893 16.2693 46.9852 14.6069 46.9852 12.8248H46.9804ZM4.2892 31.0822C4.2892 21.381 10.3757 14.3578 14.4746 14.3578C15.9297 14.3578 16.6049 15.1147 16.6049 16.7484C16.6049 18.0706 16.0913 19.5653 15.5017 21.2948C14.8312 23.2494 14.0466 25.5537 13.6662 28.4521C9.72427 28.7827 6.61444 32.117 6.61444 36.1699C6.61444 36.3424 6.62395 36.5101 6.63821 36.6826H5.05952C4.55073 34.8669 4.29395 32.9889 4.29395 31.087L4.2892 31.0822ZM7.94111 36.6778C7.92684 36.5101 7.91733 36.3376 7.91733 36.1652C7.91733 32.8835 10.3662 30.1768 13.5188 29.7839C13.4618 30.4738 13.4285 31.1924 13.4285 31.9493C13.4285 33.9758 13.6948 35.7052 13.885 36.673H7.93635L7.94111 36.6778ZM22.2159 23.1152C21.379 21.5487 20.6562 20.1977 20.6562 19.0096C20.7085 17.0646 22.1351 16.7723 22.9862 16.7723C24.7218 16.7723 27.8887 18.2335 30.2092 22.0421C29.3723 22.9523 28.7827 24.0207 28.7827 25.4387C28.7827 26.3921 28.9634 27.3359 29.1726 28.4233C29.5577 30.4259 30.0333 32.9027 29.5577 36.6778H24.9548C25.0689 36.0262 25.1878 34.9627 25.2306 33.3003C25.2306 28.7443 23.5616 25.6208 22.2159 23.1104V23.1152ZM32.6343 36.6778H30.8749C31.3457 32.7877 30.8559 30.239 30.4565 28.1742C30.2615 27.1538 30.0903 26.2675 30.0903 25.4435C30.0903 24.6195 30.3946 23.9009 30.8844 23.2733C31.8973 25.319 32.6676 27.9107 32.9481 31.1541C33.1098 33.0129 33.0052 34.8717 32.639 36.6778H32.6343ZM34.8644 18.0898C33.6852 16.9352 32.8863 15.5459 32.8863 13.5817C32.8863 12.3361 33.5758 11.0139 34.8549 11.0139C36.0437 11.0139 36.6809 12.3361 36.6809 13.5817C36.6809 15.589 35.9153 16.9687 34.8644 18.0898ZM35.9724 26.5214C35.9724 25.1321 36.814 24.768 37.261 24.768C38.0123 24.768 38.2168 25.1225 38.6495 25.9897C39.1678 27.034 39.862 28.4329 42.2633 28.6677C42.0922 29.6354 41.6595 30.5361 41.0033 31.2834C40.97 31.2834 40.9414 31.2882 40.9081 31.2882C38.5734 31.2882 35.9771 29.3288 35.9771 26.5166L35.9724 26.5214ZM42.8292 30.9433C43.3665 29.9564 43.6566 28.8497 43.6566 27.7C43.6566 24.0925 40.8891 22.3008 38.2168 20.5666C37.3989 20.0348 36.5905 19.5126 35.863 18.9473C37.0755 17.6538 37.9933 16.001 37.9933 13.5769C37.9933 11.3636 36.6476 9.69163 34.8597 9.69163C33.0718 9.69163 31.5834 11.3636 31.5834 13.5769C31.5834 15.9531 32.5677 17.6394 33.9182 18.976C33.4617 19.3641 32.9767 19.7282 32.4964 20.0923C32.0447 20.4324 31.5882 20.7774 31.1602 21.1415C28.7399 17.2945 25.4303 15.4501 22.9862 15.4501C21.2744 15.4501 19.4199 16.3747 19.3486 18.9856C19.3486 20.5235 20.1427 22.0134 21.0652 23.7332C22.3395 26.1094 23.923 29.0701 23.923 33.2764C23.8754 35.1399 23.728 36.1699 23.6282 36.6682H21.9972C21.9972 36.5005 22.0019 36.328 22.0019 36.1556C22.0019 32.1122 18.9111 28.7874 14.9834 28.4377C15.359 25.7358 16.1008 23.5608 16.7333 21.7115C17.3657 19.8719 17.9078 18.2814 17.9078 16.734C17.9078 14.377 16.6524 13.026 14.4698 13.026C9.89545 13.026 2.97679 20.2216 2.97679 31.0678C2.97679 32.965 3.2193 34.8429 3.69481 36.6634H1.96396C1.36957 33.8081 1.18412 31.3696 1.36482 28.8258C2.13514 17.7257 10.8512 8.98739 21.3457 8.63767C21.4884 11.3971 23.1146 14.2284 25.6776 14.2284C27.651 14.2284 28.873 12.6235 28.873 11.1384C28.873 9.76828 28.0504 7.50706 22.7057 7.32502C23.1526 3.83737 26.1008 1.30787 29.9096 1.30787C32.1778 1.30787 34.27 2.34746 35.6775 4.17272C36.2054 4.85779 37.4369 6.46747 39.3723 6.46747C42.8435 6.46747 45.6728 9.31316 45.6728 12.8152C45.6728 14.7554 46.096 16.4992 46.5001 18.1856C46.8568 19.6515 47.1896 21.0361 47.1896 22.3822C47.1896 26.737 45.4968 29.9228 42.8244 30.9385L42.8292 30.9433ZM22.6629 8.64725C24.7456 8.71911 27.5701 9.17902 27.5701 11.148C27.5701 11.8858 26.9852 12.9206 25.6823 12.9206C23.9705 12.9206 22.7913 10.7791 22.6581 8.64725H22.6629Z" fill="white"/>
</svg>

<svg xmlns="http://www.w3.org/2000/svg" width="134" height="38" fill="none"><path fill="#fff" d="M65.334 25.717c-.782.589-1.852 1.177-3.212 1.177-2.605 0-4.92-2.353-4.92-5.442s2.315-5.443 4.92-5.443c1.36 0 2.43.588 3.125 1.177.405.353.752.735 1.07 1.177l1.448-1.471c-.434-.5-.926-.971-1.476-1.383-.955-.706-2.344-1.412-4.167-1.412-3.791 0-6.946 3.236-6.946 7.355s3.155 7.354 6.946 7.354c1.823 0 3.24-.735 4.254-1.47.578-.442 1.1-.913 1.533-1.472l-1.447-1.323a6.2 6.2 0 0 1-1.128 1.176M74.786 14.097c-1.63 0-2.818.647-3.674 1.324-.498.382-.94.823-1.3 1.323l1.244 1.324c.304-.382.636-.706.995-1.03.635-.5 1.547-1.03 2.735-1.03 1.962 0 3.316 1.443 3.316 3.531l-5.112.883c-2.514.441-3.868 1.912-3.868 4.266 0 2.059 1.934 4.118 4.697 4.118 1.437 0 2.487-.53 3.233-1.088a4.9 4.9 0 0 0 1.05-1.118v1.912h1.934V19.54c0-3.089-2.21-5.442-5.25-5.442m3.316 8.09c0 2.824-1.768 4.707-4.283 4.707-1.796 0-2.763-1.03-2.763-2.206 0-1.324.83-2.177 2.487-2.501l4.559-.883zM88.958 14.097c-1.53 0-2.599.575-3.378 1.15-.433.346-.809.72-1.097 1.151v-2.014H82.46v13.81h2.022V20.57c0-2.762 1.876-4.603 4.33-4.603 2.195 0 3.754 1.582 3.754 4.027v8.2h2.021v-8.2c0-3.596-2.31-5.897-5.63-5.897M107.153 16.48c-.312-.44-.709-.822-1.163-1.175-.795-.587-1.93-1.174-3.52-1.174-3.69 0-6.67 3.082-6.67 7.338s2.98 7.337 6.67 7.337c1.59 0 2.725-.587 3.52-1.174.454-.352.851-.733 1.163-1.174v2.055h1.987V7.968h-1.987zm-4.683 10.419c-2.582 0-4.683-2.23-4.683-5.43s2.1-5.43 4.683-5.43c2.385 0 4.683 2.348 4.683 5.43s-2.298 5.43-4.683 5.43M117.932 14.097c-3.842 0-6.973 3.236-6.973 7.355s3.131 7.354 6.973 7.354 6.973-3.236 6.973-7.355-3.13-7.354-6.973-7.354m0 12.797c-2.703 0-4.98-2.383-4.98-5.442s2.277-5.443 4.98-5.443 4.981 2.354 4.981 5.442c0 3.09-2.277 5.443-4.981 5.443M133.418 14.097c-1.63 0-2.736.546-3.522 1.093-.436.316-.814.69-1.135 1.064v-1.87h-2.037v13.81h2.037V20.57c0-2.733 2.038-4.46 4.366-4.46H134v-2.013zM41.534 13.483c-.5 0-.91.414-.91.92 0 .505.41.92.91.92s.91-.415.91-.92-.41-.92-.91-.92"/><path fill="#fff" d="M46.98 12.825c0-4.226-3.414-7.665-7.608-7.665C38.08 5.16 37.19 4 36.7 3.358A8.49 8.49 0 0 0 29.914 0c-4.479 0-8.055 3.152-8.52 7.33C10.194 7.656.883 16.945.066 28.75c-.195 2.83.033 5.523.741 8.733L.923 38h14.631l-.214-.824s-.594-2.333-.594-5.217c0-.767.033-1.495.095-2.194 3.271.273 5.858 3.037 5.858 6.405 0 .388-.014.762-.029 1.14l-.028.69h13.01s.11-.306.2-.709c.451-2.04.59-4.144.404-6.252-.304-3.53-1.208-6.43-2.425-8.738.442-.383.936-.762 1.455-1.15a32 32 0 0 0 1.626-1.289c.832.666 1.736 1.256 2.601 1.816 2.492 1.614 4.65 3.018 4.826 5.682-1.63-.173-2.044-1.006-2.515-1.955-.428-.872-.965-1.954-2.558-1.954-1.26 0-2.596 1.078-2.596 3.07 0 3.244 2.914 6.09 6.238 6.09 4.546 0 7.599-4.111 7.599-10.224 0-1.504-.352-2.96-.728-4.508-.39-1.61-.794-3.272-.794-5.054zM4.29 31.082c0-9.701 6.086-16.724 10.185-16.724 1.455 0 2.13.757 2.13 2.39 0 1.323-.514 2.817-1.103 4.547-.67 1.954-1.455 4.259-1.836 7.157-3.942.33-7.052 3.665-7.052 7.718 0 .172.01.34.024.513H5.06a20.7 20.7 0 0 1-.766-5.596zm3.651 5.596a6 6 0 0 1-.024-.513c0-3.282 2.45-5.988 5.602-6.381a25.151 25.151 0 0 0 .366 6.89H7.936zm14.275-13.563c-.837-1.566-1.56-2.917-1.56-4.105.053-1.945 1.48-2.238 2.33-2.238 1.736 0 4.903 1.462 7.223 5.27-.837.91-1.426 1.979-1.426 3.397 0 .953.18 1.897.39 2.984.385 2.003.86 4.48.385 8.255h-4.603c.114-.652.233-1.715.276-3.378 0-4.556-1.67-7.68-3.015-10.19zm10.418 13.563h-1.76c.472-3.89-.018-6.439-.418-8.504-.194-1.02-.366-1.907-.366-2.73 0-.825.305-1.543.794-2.17 1.013 2.045 1.784 4.637 2.064 7.88a19.4 19.4 0 0 1-.309 5.524zm2.23-18.588c-1.179-1.155-1.978-2.544-1.978-4.508 0-1.246.69-2.568 1.969-2.568 1.189 0 1.826 1.322 1.826 2.568 0 2.007-.766 3.387-1.817 4.508m1.108 8.431c0-1.389.842-1.753 1.289-1.753.751 0 .956.354 1.389 1.222.518 1.044 1.212 2.443 3.613 2.678a5.4 5.4 0 0 1-1.26 2.615c-.033 0-.062.005-.095.005-2.335 0-4.93-1.96-4.93-4.771zm6.857 4.422a6.76 6.76 0 0 0 .828-3.243c0-3.607-2.768-5.4-5.44-7.133-.818-.532-1.626-1.054-2.354-1.62 1.212-1.293 2.13-2.946 2.13-5.37 0-2.213-1.345-3.885-3.133-3.885s-3.277 1.672-3.277 3.885c0 2.376.985 4.062 2.335 5.399-.456.388-.941.752-1.422 1.116-.451.34-.908.685-1.336 1.05-2.42-3.847-5.73-5.692-8.174-5.692-1.712 0-3.566.925-3.637 3.536 0 1.537.794 3.027 1.716 4.747 1.274 2.376 2.858 5.337 2.858 9.543-.048 1.864-.195 2.894-.295 3.392h-1.63c0-.167.004-.34.004-.512 0-4.044-3.09-7.369-7.019-7.718.376-2.702 1.118-4.877 1.75-6.726.633-1.84 1.175-3.43 1.175-4.978 0-2.357-1.256-3.708-3.438-3.708-4.575 0-11.493 7.196-11.493 18.042 0 1.897.242 3.775.718 5.595H1.964c-.594-2.855-.78-5.293-.6-7.837.771-11.1 9.487-19.839 19.982-20.188.142 2.76 1.769 5.59 4.332 5.59a3.15 3.15 0 0 0 3.195-3.09c0-1.37-.823-3.63-6.167-3.813.447-3.488 3.395-6.017 7.204-6.017 2.268 0 4.36 1.04 5.768 2.865.527.685 1.759 2.294 3.694 2.294 3.471 0 6.3 2.846 6.3 6.348 0 1.94.424 3.684.828 5.37.357 1.467.69 2.851.69 4.197 0 4.355-1.693 7.54-4.366 8.557zM22.663 8.647c2.083.072 4.907.532 4.907 2.501 0 .738-.585 1.773-1.888 1.773-1.711 0-2.89-2.142-3.024-4.274z"/></svg>
